svg/Pictogram/pictograms-aem-0088-keep_safe_distance_away_from_pivot-articulation_area.svg

<?xml version="1.0" encoding="ISO-8859-1" standalone="yes"?>
<svg height="304.014" width="304.015">
  <metadata>
    <rdf:RDF xmlns:cc="http://web.resource.org/cc/" xmlns:dc="http://purl.org/dc/elements/1.1/" xmlns:rdf="http://www.w3.org/1999/02/22-rdf-syntax-ns#">
      <cc:Work rdf:about="">
        <dc:title></dc:title>
        <dc:description></dc:description>
        <dc:subject>
          <rdf:Bag>
            <rdf:li></rdf:li>
          </rdf:Bag>
        </dc:subject>
        <dc:publisher>
          <cc:Agent rdf:about="http://www.unece.org/trans/danger/publi/ghs/pictograms.html">
            <dc:title>Source: UNECE GHS of Classification and Labeling of Chemicals, Source: AEM Pictorial Database, Source: AEM Pictorial Database, Source: AEM Pictorial Database, Source: AEM Pictorial Database</dc:title>
          </cc:Agent>
        </dc:publisher>
        <dc:creator>
          <cc:Agent>
            <dc:title></dc:title>
          </cc:Agent>
        </dc:creator>
        <dc:rights>
          <cc:Agent>
            <dc:title></dc:title>
          </cc:Agent>
        </dc:rights>
        <dc:date></dc:date>
        <dc:format>image/svg+xml</dc:format>
        <dc:type rdf:resource="http://purl.org/dc/dcmitype/StillImage"/>
        <cc:license rdf:resource="http://en.wikipedia.org/wiki/Public_domain"/>
        <dc:language>en</dc:language>
      </cc:Work>
    </rdf:RDF>
  </metadata>
  <defs><marker id="ArrowEnd" markerHeight="3" markerUnits="strokeWidth" markerWidth="4" orient="auto" refX="0" refY="5" viewBox="0 0 10 10"><path d="M 0 0 L 10 5 L 0 10 z"/></marker><marker id="ArrowStart" markerHeight="3" markerUnits="strokeWidth" markerWidth="4" orient="auto" refX="10" refY="5" viewBox="0 0 10 10"><path d="M 10 0 L 0 5 L 10 10 z"/></marker> </defs>
  <g id="g2958" transform="matrix(1.3532768,0,0,1.3532781,-53.207834,-52.192858)">
    <path d="M 142.448 137.624L 125.48 152.952L 142.499 168.221L 155.835 168.198L 143.827 157.42L 182.394 157.358L 170.413 168.174L 183.753 168.151L 200.718 152.827L 183.702 137.553L 170.362 137.577L 182.378 148.358L 143.808 148.42L 155.784 137.6L 142.448 137.624M 125.48 152.952L 142.448 137.624L 125.48 152.952" style="stroke:none; fill-rule:evenodd; fill:#000000"/>
    <path d="M 142.448 137.624L 125.48 152.952L 142.499 168.221L 155.835 168.198L 143.827 157.42L 182.394 157.358L 170.413 168.174L 183.753 168.151L 200.718 152.827L 183.702 137.553L 170.362 137.577L 182.378 148.358L 143.808 148.42L 155.784 137.6L 142.448 137.624zM 125.48 152.952L 142.448 137.624" style="stroke:#000000; stroke-width:0.10000000000000001; stroke-linejoin:bevel; fill:none"/>
    <path d="M 107.069 157.456L 100.089 161.092C 98.7024 161.819 98.1594 163.541 98.8824 164.928L 114.944 195.756C 115.667 197.143 117.39 197.686 118.776 196.963L 125.761 193.331C 127.144 192.608 127.687 190.881 126.968 189.495L 110.901 158.663C 110.183 157.276 108.456 156.733 107.069 157.456zM 62.1984 180.834L 55.2184 184.471C 53.8314 185.19 53.2884 186.916 54.0114 188.303L 70.0734 219.135C 70.7964 220.518 72.5194 221.061 73.9094 220.338L 80.8904 216.702C 82.2764 215.983 82.8194 214.256 82.0934 212.87L 66.0344 182.041C 65.3124 180.659 63.5854 180.112 62.1984 180.834zM 86.0854 156.19L 66.0264 166.639C 63.8664 167.764 63.2374 170.877 64.6324 173.553L 88.2454 218.877C 89.6444 221.553 92.5544 222.827 94.7184 221.698L 114.772 211.248C 116.937 210.124 117.565 207.01 116.171 204.331L 92.5584 159.01C 91.1594 156.331 88.2534 155.065 86.0854 156.19zM 73.9054 89.3344L 80.8864 92.9714C 82.2724 93.6944 82.8154 95.4204 82.0934 96.8074L 66.0344 127.635C 65.3124 129.022 63.5854 129.565 62.1984 128.842L 55.2184 125.206C 53.8314 124.483 53.2884 122.756 54.0114 121.374L 70.0734 90.5414C 70.7964 89.1554 72.5224 88.6124 73.9094 89.3344L 73.9054 89.3344zM 118.776 112.709L 125.761 116.346C 127.144 117.069 127.69 118.791 126.968 120.178L 110.901 151.01C 110.183 152.397 108.452 152.94 107.069 152.217L 100.089 148.581C 98.7024 147.858 98.1594 146.131 98.8824 144.748L 114.944 113.916C 115.667 112.53 117.39 111.987 118.776 112.709zM 94.8904 88.0694L 114.944 98.5184C 117.108 99.6434 117.737 102.752 116.343 105.432L 92.7304 150.756C 91.3354 153.432 88.4254 154.702 86.2614 153.577L 66.2024 143.127C 64.0424 141.998 63.4094 138.889 64.8084 136.213L 88.4254 90.8854C 89.8154 88.2094 92.7264 86.9404 94.8904 88.0694z" style="stroke:#000000; stroke-width:2.5179; fill:none"/>
    <path d="M 202.39 130.108L 202.39 140.409C 202.39 143.135 204.62 145.37 207.351 145.37C 210.077 145.37 212.312 143.135 212.312 140.409L 212.312 109.795C 212.425 108.991 214.175 108.987 214.132 109.784L 214.132 134.553C 214.132 134.608 214.136 134.659 214.136 134.713C 214.097 134.959 214.077 135.213 214.077 135.475L 214.077 188.315C 214.077 191.041 216.312 193.276 219.038 193.276C 221.765 193.276 223.999 191.041 223.999 188.315L 223.999 147.791C 223.925 146.159 228.737 146.104 228.659 147.791L 228.659 188.315C 228.659 191.041 230.894 193.276 233.624 193.276C 236.351 193.276 238.581 191.041 238.581 188.311L 238.581 135.471C 238.581 135.155 238.554 134.846 238.495 134.545L 238.495 109.639C 238.476 108.952 240.171 108.795 240.269 109.627L 240.269 140.409C 240.269 143.135 242.503 145.37 245.23 145.37C 247.956 145.37 250.19 143.135 250.19 140.409L 250.19 105.299C 250.19 103.116 248.761 101.248 246.788 100.592C 245.796 100.01 244.585 99.6744 243.284 99.6824L 208.769 99.8974C 207.651 99.9054 206.604 100.17 205.71 100.62C 203.784 101.303 202.39 103.147 202.39 105.299L 202.39 130.108zM 226.288 81.9054C 221.753 81.9054 218.054 85.6044 218.054 90.1394C 218.054 94.6744 221.753 98.3744 226.288 98.3744C 230.823 98.3744 234.522 94.6744 234.522 90.1394C 234.522 85.6044 230.823 81.9054 226.288 81.9054" style="stroke:none; fill-rule:evenodd; fill:#000000"/>
    <path d="M 202.39 130.108L 202.39 140.409C 202.39 143.135 204.62 145.37 207.351 145.37C 210.077 145.37 212.312 143.135 212.312 140.409L 212.312 109.795C 212.425 108.991 214.175 108.987 214.132 109.784L 214.132 134.553C 214.132 134.608 214.136 134.659 214.136 134.713C 214.097 134.959 214.077 135.213 214.077 135.475L 214.077 188.315C 214.077 191.041 216.312 193.276 219.038 193.276C 221.765 193.276 223.999 191.041 223.999 188.315L 223.999 147.791C 223.925 146.159 228.737 146.104 228.659 147.791L 228.659 188.315C 228.659 191.041 230.894 193.276 233.624 193.276C 236.351 193.276 238.581 191.041 238.581 188.311L 238.581 135.471C 238.581 135.155 238.554 134.846 238.495 134.545L 238.495 109.639C 238.476 108.952 240.171 108.795 240.269 109.627L 240.269 140.409C 240.269 143.135 242.503 145.37 245.23 145.37C 247.956 145.37 250.19 143.135 250.19 140.409L 250.19 105.299C 250.19 103.116 248.761 101.248 246.788 100.592C 245.796 100.01 244.585 99.6744 243.284 99.6824L 208.769 99.8974C 207.651 99.9054 206.604 100.17 205.71 100.62C 203.784 101.303 202.39 103.147 202.39 105.299L 202.39 130.108zM 226.288 81.9054C 221.753 81.9054 218.054 85.6044 218.054 90.1394C 218.054 94.6744 221.753 98.3744 226.288 98.3744C 230.823 98.3744 234.522 94.6744 234.522 90.1394C 234.522 85.6044 230.823 81.9054 226.288 81.9054z" style="stroke:#000000; stroke-width:0.14630000000000001; fill:none"/>
    <path d="M 29.6204 265.393L 2.62042 265.393" style="stroke:#000000; stroke-width:0.5; fill:none"/>
    <path d="M 38.6204 274.393L 38.6204 301.393" style="stroke:#000000; stroke-width:0.5; fill:none"/>
    <path d="M 29.6204 38.6204L 2.62042 38.6204" style="stroke:#000000; stroke-width:0.5; fill:none"/>
    <path d="M 38.6204 29.6204L 38.6204 2.62042" style="stroke:#000000; stroke-width:0.5; fill:none"/>
    <path d="M 274.394 38.6204L 301.394 38.6204" style="stroke:#000000; stroke-width:0.5; fill:none"/>
    <path d="M 265.394 29.6204L 265.394 2.62042" style="stroke:#000000; stroke-width:0.5; fill:none"/>
    <path d="M 274.394 265.393L 301.394 265.393" style="stroke:#000000; stroke-width:0.5; fill:none"/>
    <path d="M 265.394 274.393L 265.394 301.393" style="stroke:#000000; stroke-width:0.5; fill:none"/>
  </g>
</svg>

<svg viewBox="0 0 304.01 304.01"><g transform="matrix(1.35328 0 0 1.35328-53.21-52.19)"><path d="m142.45 137.62l-16.968 15.328 17.02 15.269 13.336-.023-12.01-10.778 38.567-.062-11.981 10.816 13.34-.023 16.965-15.324-17.02-15.274-13.34.024 12.02 10.781-38.57.062 11.976-10.82-13.336.024m-16.968 15.328l16.968-15.328-16.968 15.328" fill-rule="evenodd"/><g fill="none" stroke="#000"><path d="m142.45 137.62l-16.968 15.328 17.02 15.269 13.336-.023-12.01-10.778 38.567-.062-11.981 10.816 13.34-.023 16.965-15.324-17.02-15.274-13.34.024 12.02 10.781-38.57.062 11.976-10.82-13.336.024zm-16.968 15.328l16.968-15.328" stroke-linejoin="bevel" stroke-width=".1"/><path d="m107.07 157.46l-6.98 3.636c-1.387.727-1.93 2.449-1.207 3.836l16.06 30.828c.723 1.387 2.446 1.93 3.832 1.207l6.985-3.632c1.383-.723 1.926-2.45 1.207-3.836l-16.07-30.832c-.718-1.387-2.445-1.93-3.832-1.207zm-44.871 23.378l-6.98 3.637c-1.387.719-1.93 2.445-1.207 3.832l16.06 30.832c.723 1.383 2.446 1.926 3.836 1.203l6.981-3.636c1.386-.719 1.929-2.446 1.203-3.832l-16.06-30.829c-.722-1.382-2.449-1.929-3.836-1.207zm23.887-24.644l-20.06 10.449c-2.16 1.125-2.789 4.238-1.394 6.914l23.613 45.32c1.399 2.676 4.309 3.95 6.473 2.821l20.05-10.45c2.165-1.124 2.793-4.238 1.399-6.917l-23.613-45.32c-1.399-2.679-4.305-3.945-6.473-2.82zm-12.18-66.856l6.981 3.637c1.386.723 1.929 2.449 1.207 3.836l-16.06 30.828c-.722 1.387-2.449 1.93-3.836 1.207l-6.98-3.636c-1.387-.723-1.93-2.45-1.207-3.832l16.06-30.833c.723-1.386 2.449-1.929 3.836-1.207h-.004zm44.871 23.375l6.985 3.637c1.383.723 1.929 2.445 1.207 3.832l-16.07 30.832c-.718 1.387-2.449 1.93-3.832 1.207l-6.98-3.636c-1.387-.723-1.93-2.45-1.207-3.833l16.06-30.832c.723-1.386 2.446-1.929 3.832-1.207zm-23.886-24.64l20.05 10.449c2.164 1.125 2.793 4.234 1.399 6.914l-23.613 45.32c-1.395 2.676-4.305 3.946-6.469 2.821l-20.06-10.45c-2.16-1.129-2.793-4.238-1.394-6.914l23.617-45.33c1.39-2.676 4.301-3.945 6.465-2.816z" stroke-width="2.518"/></g><path d="m202.39 130.11v10.301c0 2.726 2.23 4.961 4.961 4.961 2.726 0 4.961-2.235 4.961-4.961v-30.614c.113-.804 1.863-.808 1.82-.011v24.769c0 .055.004.106.004.16-.039.246-.059.5-.059.762v52.84c0 2.726 2.235 4.961 4.961 4.961 2.727 0 4.961-2.235 4.961-4.961v-40.524c-.074-1.632 4.738-1.687 4.66 0v40.524c0 2.726 2.235 4.961 4.965 4.961 2.727 0 4.957-2.235 4.957-4.965v-52.84c0-.316-.027-.625-.086-.926v-24.906c-.019-.687 1.676-.844 1.774-.012v30.782c0 2.726 2.234 4.961 4.961 4.961 2.726 0 4.96-2.235 4.96-4.961v-35.11c0-2.183-1.429-4.051-3.402-4.707-.992-.582-2.203-.918-3.504-.91l-34.515.215c-1.118.008-2.165.273-3.059.723-1.926.683-3.32 2.527-3.32 4.679v24.809m23.898-48.2c-4.535 0-8.234 3.699-8.234 8.234 0 4.535 3.699 8.235 8.234 8.235 4.535 0 8.234-3.7 8.234-8.235 0-4.535-3.699-8.234-8.234-8.234" fill-rule="evenodd"/><path d="m202.39 130.11v10.301c0 2.726 2.23 4.961 4.961 4.961 2.726 0 4.961-2.235 4.961-4.961v-30.614c.113-.804 1.863-.808 1.82-.011v24.769c0 .055.004.106.004.16-.039.246-.059.5-.059.762v52.84c0 2.726 2.235 4.961 4.961 4.961 2.727 0 4.961-2.235 4.961-4.961v-40.524c-.074-1.632 4.738-1.687 4.66 0v40.524c0 2.726 2.235 4.961 4.965 4.961 2.727 0 4.957-2.235 4.957-4.965v-52.84c0-.316-.027-.625-.086-.926v-24.906c-.019-.687 1.676-.844 1.774-.012v30.782c0 2.726 2.234 4.961 4.961 4.961 2.726 0 4.96-2.235 4.96-4.961v-35.11c0-2.183-1.429-4.051-3.402-4.707-.992-.582-2.203-.918-3.504-.91l-34.515.215c-1.118.008-2.165.273-3.059.723-1.926.683-3.32 2.527-3.32 4.679v24.809zm23.898-48.2c-4.535 0-8.234 3.699-8.234 8.234 0 4.535 3.699 8.235 8.234 8.235 4.535 0 8.234-3.7 8.234-8.235 0-4.535-3.699-8.234-8.234-8.234z" fill="none" stroke="#000" stroke-width=".146"/></g></svg>
